X:428
T:Pinch of Snuff, The
S:Johnny Cradden, Edinburgh
Z:Nigel Gatherer
M:4/4
L:1/8
K:D
F2 DF E2 DE | F2 DF EFGE | F2 DF E2 DE | GABG  EFGE :|
DFAF  BFAF  | DFAF  EFGE | DFAF  BFAF  | GABG  EFGE :|
K:G
B2 GB A2 GA | B2 GB ABcA | B2 GB A2 GA | cdec  ABcA :|
GBdB  eBdB  | GBdB  ABcA | GBdB  eBdB  | cdec  ABcA :|
K:A
c2 Ac B2 AB | c2 Ac BcdB | c2 Ac B2 AB | defd  BcdB :|
Acec  fcec  | Acec  BcdB | Acec  fcec  | defd  BcdB :|
K:D
f2 df e2 de | f2 df efge | f2 df e2 de | gabg  efge :|
dfaf  bfaf  | dfaf  efge | dfaf  bfaf  | gabg  efge :|
K:DMix
f3  e d3  B | A3  F DFAF | DFAB  c3  A | GE E2 cEGE :|
<end>
<start>
